!!!OTL: ROTHE KIRSCHEN ESS ICH GERN
!!!ARE: Europa, Mitteleuropa, Deutschland, Kassel
!!!SCT: K2227
!!!YEM: Copyright 1995, estate of Helmut Schaffrath.
**kern
*ICvox
*Ivox
*M2/4
*k[]
*C:
=1
{8g
8g
8a
8a
=2
8g
8f
8e
8r}
=3
{8g
8g
8a
8a
=4
4g
8e
8r}
=5
{8g
8g
8a
8a
=6
8g
8f
4e}
=7
{8g
8g
8a
8a
=8
8g
8f
8e
8r}
=9
{8g
8g
8a
8a
=10
8g
8f
4e}
=11
{8g
8g
8a
8a
=12
8g
8f
8e
8r}
=13
{8g
8g
4a
=14
8g
8f
4e}
=15
{8g
8g
8a
8a
=16
8g
8f
4e}
==
!!!AGN: Kinder - Lied, Reigen, Tanz - Spiel, Brautwerbung
!!!ONB: ESAC (Essen Associative Code) Database: KINDER
!!!AMT: simple duple
!!!AIN: vox
!!!EED: Helmut Schaffrath
!!!EEV: 1.0
*-
